X:1
T:Title
%%score { 1 | 2 }
L:1/8
M:6/8
K:Db
V:1 treble nm="Grand Piano"
V:2 bass 
V:1
 z3 z2[Q:1/4=87] [FA] | [FA]>[EG][DF] [GB][FA][DF] | [FA]2 [_F=G] [E_G]2 [DG] | %3
 [CG]2 [B,G]/[B,G]/ G[B,A][CG] | [DF]3- [DF]2 [FA] | B>cd ded | [Fd] [FA]2- [FA]2 [DF] | %7
[M:13/16] [DA]>[DB][DA][CA][B,CG]3/2[K:bass][G,CE] |[M:5/8] [F,D]-[F,D]- [F,D]3 | %9
[M:1/8][K:treble] [DFA] |[M:3/4] A>A Ae/A/- AA | [FA]<[Fd] FB/A/- AA | %12
 [CA]>[CA] [DA][EA] [FA][EA] | [DA]3 [Fd]2 [Af] | e2 d/B/e dB | [GB][FA]- [FA]3 G | %16
 F2 G/A/[EG] [DF][CE] |[M:5/8] D-D- D3 |] %18
V:2
 z3 z2 [D,A,] | [D,A,]>[D,A,][D,A,] [D,D][D,D][D,A,] | [A,,A,]3 [A,,A,]2 [A,,A,] | %3
 [A,,A,]2 [A,,A,]/[A,,A,]/ [A,,A,][A,,A,][A,,A,] | [D,A,]3- [D,A,]2 [D,D] | %5
 [G,DG]>[G,CG][G,B,G] [G,B,G][G,B,G][G,=A,G] | [D,A,] [D,D]2- [D,D]2 [D,A,] | %7
[M:13/16] [A,,F,]>[A,,G,][A,,F,][A,,E,]A,,3/2G,, |[M:5/8] D,-D,- D,3 |[M:1/8] D, | %10
[M:3/4][K:treble] [A,CG]>[A,CG] [A,CG][A,CG]/[A,CG]/- [A,CG][A,CG] | %11
 [D,D]<[D,A,] [D,A,D][D,G,D]/[D,F,D]/- [D,F,D][D,F,D] | %12
 [A,,E,]>[A,,E,] [A,,F,][A,,G,] [A,,A,][A,,G,] | [D,F,]3 [D,A,]2 [D,D] | %14
 [G,B,G]2 [G,B,G]/[G,DG]/[G,B,G] [G,B,G][G,DG] | [D,D][D,D]- [D,D]3 [G,B,E] | %16
 [A,D]2 [A,E]/[A,F]/[K:bass][A,,A,] [A,,A,][A,,G,] |[M:5/8] [D,F,]-[D,F,]- [D,F,]3 |] %18

